svg/education/eyeglass_fill.svg

<?xml version="1.0" encoding="UTF-8"?>
<svg width="24px" height="24px" viewBox="0 0 24 24" version="1.1" xmlns="http://www.w3.org/2000/svg" xmlns:xlink="http://www.w3.org/1999/xlink">
    <title>eyeglass_fill</title>
    <g id="页面-1" stroke="none" stroke-width="1" fill="none" fill-rule="evenodd">
        <g id="Education" transform="translate(-480.000000, -48.000000)" fill-rule="nonzero">
            <g id="eyeglass_fill" transform="translate(480.000000, 48.000000)">
                 <path d="M24,0 L24,24 L0,24 L0,0 L24,0 Z M12.5934901,23.257841 L12.5819402,23.2595131 L12.5108777,23.2950439 L12.4918791,23.2987469 L12.4918791,23.2987469 L12.4767152,23.2950439 L12.4056548,23.2595131 C12.3958229,23.2563662 12.3870493,23.2590235 12.3821421,23.2649074 L12.3780323,23.275831 L12.360941,23.7031097 L12.3658947,23.7234994 L12.3769048,23.7357139 L12.4804777,23.8096931 L12.4953491,23.8136134 L12.4953491,23.8136134 L12.5071152,23.8096931 L12.6106902,23.7357139 L12.6232938,23.7196733 L12.6232938,23.7196733 L12.6266527,23.7031097 L12.609561,23.275831 C12.6075724,23.2657013 12.6010112,23.2592993 12.5934901,23.257841 L12.5934901,23.257841 Z M12.8583906,23.1452862 L12.8445485,23.1473072 L12.6598443,23.2396597 L12.6498822,23.2499052 L12.6498822,23.2499052 L12.6471943,23.2611114 L12.6650943,23.6906389 L12.6699349,23.7034178 L12.6699349,23.7034178 L12.678386,23.7104931 L12.8793402,23.8032389 C12.8914285,23.8068999 12.9022333,23.8029875 12.9078286,23.7952264 L12.9118235,23.7811639 L12.8776777,23.1665331 C12.8752882,23.1545897 12.8674102,23.1470016 12.8583906,23.1452862 L12.8583906,23.1452862 Z M12.1430473,23.1473072 C12.1332178,23.1423925 12.1221763,23.1452606 12.1156365,23.1525954 L12.1099173,23.1665331 L12.0757714,23.7811639 C12.0751323,23.7926639 12.0828099,23.8018602 12.0926481,23.8045676 L12.108256,23.8032389 L12.3092106,23.7104931 L12.3186497,23.7024347 L12.3186497,23.7024347 L12.3225043,23.6906389 L12.340401,23.2611114 L12.337245,23.2485176 L12.337245,23.2485176 L12.3277531,23.2396597 L12.1430473,23.1473072 Z" id="MingCute" fill-rule="nonzero"></path>
                <path d="M7.48806,5 C7.04645,5 6.65713,5.28967 6.53024,5.71265 L4.50435,12.4656 C5.10575,12.1675 5.78331,12 6.5,12 C8.47065,12 10.1454,13.2667 10.7545,15.0303 C10.8331,15.0105 10.9153,15 11,15 L13,15 C13.0847,15 13.1669,15.0105 13.2455,15.0303 C13.8546,13.2667 15.5293,12 17.5,12 C18.2167,12 18.8943,12.1675 19.4956,12.4656 L17.4698,5.71265 C17.3429,5.28967 16.9535,5 16.5119,5 L16,5 C15.4477,5 15,4.55228 15,4 C15,3.44772 15.4477,3 16,3 L16.5119,3 C17.8368,3 19.0047,3.869 19.3854,5.13796 L21.6204,12.588 C21.8721,13.427 22,14.2982 22,15.1742 L22,16.5 C22,18.9853 19.9853,21 17.5,21 C15.1836,21 13.276,19.2498 13.0274,16.9996 C13.0183,16.9999 13.0092,17 13,17 L11,17 C10.9908,17 10.9817,16.9999 10.9726,16.9996 C10.724,19.2498 8.8164,21 6.5,21 C4.01472,21 2,18.9853 2,16.5 L2,15.1742 C2,14.2982 2.12787,13.427 2.37956,12.588 L4.61458,5.13796 C4.99527,3.869 6.16324,3 7.48806,3 L8,3 C8.55228,3 9,3.44772 9,4 C9,4.55228 8.55228,5 8,5 L7.48806,5 Z" id="路径" fill="#09244B"></path>
            </g>
        </g>
    </g>
</svg>

<svg xmlns="http://www.w3.org/2000/svg" width="24" height="24"><g fill="none" fill-rule="nonzero"><path d="M24 0v24H0V0h24ZM12.593 23.258l-.011.002-.071.035-.02.004-.014-.004-.071-.035c-.01-.004-.019-.001-.024.005l-.004.01-.017.428.005.02.01.013.104.074.015.004.012-.004.104-.074.012-.016.004-.017-.017-.427c-.002-.01-.009-.017-.017-.018Zm.265-.113-.013.002-.185.093-.01.01-.003.011.018.43.005.012.008.007.201.093c.012.004.023 0 .029-.008l.004-.014-.034-.614c-.003-.012-.01-.02-.02-.022Zm-.715.002a.023.023 0 0 0-.027.006l-.006.014-.034.614c0 .012.007.02.017.024l.015-.002.201-.093.01-.008.004-.011.017-.43-.003-.012-.01-.01-.184-.092Z"/><path fill="#09244B" d="M7.488 5a1 1 0 0 0-.958.713l-2.026 6.753a4.502 4.502 0 0 1 6.25 2.565c.08-.02.161-.031.246-.031h2c.085 0 .167.01.245.03a4.502 4.502 0 0 1 6.25-2.564L17.47 5.713A1 1 0 0 0 16.512 5H16a1 1 0 1 1 0-2h.512a3 3 0 0 1 2.873 2.138l2.235 7.45a9 9 0 0 1 .38 2.586V16.5a4.5 4.5 0 0 1-8.973.5.83.83 0 0 1-.027 0h-2a.83.83 0 0 1-.027 0A4.5 4.5 0 0 1 2 16.5v-1.326a9 9 0 0 1 .38-2.586l2.235-7.45A3 3 0 0 1 7.488 3H8a1 1 0 0 1 0 2h-.512Z"/></g></svg>
